X: 320
T: The piper's welcome
C: anon.
O: Ireland
B: Francis O'Neill: "The Dance Music of Ireland" (1907) no. 320
R: Double jig
Z: Transcribed by Frank Nordberg - http://www.musicaviva.com
F: http://www.musicaviva.com/abc/tunes/ireland/oneill-1001/oneill-1001-032
0.abc
m: Tn2 = (3n/o/n/ m/n/
m: ~n3 = no/4n/m/4n
M: 6/8
L: 1/8
K: D
dcB cAA|dAG FED|dBd cAF|AGF EFA|dcB cAA|dAG FEF|DFA DFA|AGF EFA:|
|:~d3 fdf|a2a afe|ded fdf|(e/f/g)e ecA|~d3 fdf|a2a afe|dcB cAF|AGF EFA:|
|:def def|dAG FED|def def|AGF EFA|def edc|dAG FED|TD2D FEF|AGF EFA:|
W:
W:
W: From Musica Viva - http://www.musicaviva.com
W: the Internet center for free sheet music downloads.


